X: 1
T: The Maid In The Cherry Tree
R: reel
M: 4/4
L: 1/8
K: Amix
eAAF G2 cd|eA A/A/A gefd|eAAF G~E3|1 dBgB BAcd:|2 dBgB BAA2||
ea a/a/a bgag|ea a/a/a egdg|ea a/a/a bgaf|gedB BAA2|
ea a/a/a bgag|eaaf ~g3a|bgaf gefd|egdB BAcd||


Tune 5195	Setting 30229

